X: 2516
T: Ballydesmond, The
R: polka
M: 2/4
K: Adorian
|:A>B AG|EF GE|A>B AG|Ad dc|
A>B AG|EF G2|AB cE|ED D2:|
ed ^cd|ed d2|ed ^cd|ea a>g|
ed ^cd|ed d2|AB cd|ef gf|
ed ^cd|ed d2|ed ^cd|ea a2|
e/f/g dB|ce dc|AB cE|ED D2||

